Yaru++/actions/16/object-unlocked.svg

<svg viewBox="0 0 16 16" xmlns="http://www.w3.org/2000/svg"><path d="m8 2c-1.6568625 0-3 1.3431371-3 3v1h1v-1c0-1.1045695.8954305-2 2-2s2 .8954305 2 2v3h-3-1-1-2v6h10v-6h-2v-3c0-1.6568629-1.3431375-3-3-3zm-4 7h8v4h-8z" fill="#808080"/></svg>

<svg xmlns="http://www.w3.org/2000/svg" version="1.1" viewBox="0 0 16 16">
 <defs>
  <style id="current-color-scheme" type="text/css">
   .ColorScheme-Text { color:#808080; }
  </style>
 </defs>
 <path fill="#808080" class="ColorScheme-Text" d="M 8 2 C 6.3431375 2 5 3.3431371 5 5 L 5 6 L 6 6 L 6 5 C 6 3.8954305 6.8954305 3 8 3 C 9.1045695 3 10 3.8954305 10 5 L 10 8 L 7 8 L 6 8 L 5 8 L 3 8 L 3 14 L 13 14 L 13 8 L 11 8 L 11 5 C 11 3.3431371 9.6568625 2 8 2 z M 4 9 L 12 9 L 12 13 L 4 13 L 4 9 z"/>
</svg>
